!!!COM:	Bach, Johann Sebastian
!!!OMV:	Oh God, how many heart pains
!!!OTL:	Oh God, how many heart pains
**kern	**fb	**kern	**kern	**kern	**kern	**kern	**kern	**kern	**kern
*part9	*part9	*part8	*part7	*part6	*part5	*part4	*part3	*part2	*part1
*staff9	*	*staff8	*staff7	*staff6	*staff5	*staff4	*staff3	*staff2	*staff1
*I"Continuo	*	*I"Voice	*I"Voice	*I"Voice	*I"Voice	*I"Flute	*I"Timpani	*I"Horn in G	*I"Horn in G
*I'Cont.	*	*I'V	*I'V	*I'V	*I'V	*I'Fl.	*I'Timp.	*I'G Hn.	*I'G Hn.
*clefF4	*	*clefF4	*clefGv2	*clefG2	*clefG2	*clefG2	*clefF4	*clefG2	*clefG2
*Trd0c0	*	*	*	*	*	*	*	*	*
*k[f#]	*	*k[f#]	*k[f#]	*k[f#]	*k[f#]	*k[f#]	*k[f#]	*k[f#]	*k[f#]
*M4/4	*	*M4/4	*M4/4	*M4/4	*M4/4	*M4/4	*M4/4	*M4/4	*M4/4
*met(c)	*	*met(c)	*met(c)	*met(c)	*met(c)	*met(c)	*met(c)	*met(c)	*met(c)
4r	.	4r	4r	4r	4g	4gg	4r	4r	4g
=2	=2	=2	=2	=2	=2	=2	=2	=2	=2
4r	.	4r	4r	4r	4dd	4ddd	4r	4r	4dd
4DD	.	4D	4A	4f#	4dd	4ddd	4D	8aL	4dd
.	.	.	.	.	.	.	.	16bL	.
.	.	.	.	.	.	.	.	16ccJJ	.
8GGL	.	8GL	8BL	4.g	4dd	4ddd	4GG	8bL	4dd
8AA	.	8A	8cJ	.	.	.	.	8aJ	.
8BB	.	8B	[4d	.	4dd	4ddd	4r	[4g	4dd
8GGJ	.	8GJ	.	8fn	.	.	.	.	.
=3	=3	=3	=3	=3	=3	=3	=3	=3	=3
8CL	.	8cL	8dL]	8eL	4ee	4eee	4r	4g]	4ee
8AA	.	8A	8cJ	8eJ	.	.	.	.	.
8D	.	8d	8BL	16f#XLL	8ddL	8dddL	4D	16dLL	8ddL
.	.	.	.	16eJ	.	.	.	16BJ	.
8DDJ	.	8DJ	8AJ	8f#J	8ccJ	8cccJ	.	8dJ	8ccJ
4GG;	.	4G;	4G;	4g;	4b;	4bb;	4GG;	4d;	4b;
8F#L	.	8F#L	8dL	8aL	4a	4aa	4D	4d	4a
8DJ	.	8DJ	8cJ	8f#J	.	.	.	.	.
=4	=4	=4	=4	=4	=4	=4	=4	=4	=4
8GL	.	8GL	8BL	4.g	8bL	8bbL	8GG	8dL	8bL
8A	.	8A	8AJ	.	8cc#XJ	8ccc#XJ	8r	8aJ	8cc#XJ
8B	.	8B	8dL	.	4dd	4ddd	4r	8r	4dd
8AJ	.	8AJ	8f#J	8f#	.	.	.	8a	.
8GL	.	8GL	8BL	8gL	4ee	4eee	2r	8bL	4ee
8E	.	8E	8eJ	8b	.	.	.	8gJ	.
8A	.	8A	4c#X	8a	4ee	4eee	.	4a	4ee
8AAJ	.	8AAJ	.	8gJ	.	.	.	.	.
=5	=5	=5	=5	=5	=5	=5	=5	=5	=5
2.D;	.	2.D;	2.d;	2.f#;	2.dd;	2.ddd;	2.D;	2.a;	2.dd;
8dL	.	8dL	4f#	4a	4dd	4ddd	4D	4a	4dd
8cJ	.	8cJ	.	.	.	.	.	.	.
=6	=6	=6	=6	=6	=6	=6	=6	=6	=6
!!pagebreak:original
8BL	.	8BL	4g	4b	4dd	4ddd	4GG	4g	4dd
8A	.	8A	.	.	.	.	.	.	.
8G	.	8G	4d	4a	4dd	4ddd	4D	4a	4dd
8F#J	.	8F#J	.	.	.	.	.	.	.
4G	.	4.G	8BL	8gL	8ddL	8dddL	4GG	8bL	8ddL
.	.	.	8cJ	8a	8ccJ	8cccJ	.	8aJ	8ccJ
8GGL	.	.	4d	8b	8bL	8bbL	4r	[4g	8bL
8AAJ	.	8A	.	8aJ	8ccJ	8cccJ	.	.	8ccJ
=7	=7	=7	=7	=7	=7	=7	=7	=7	=7
8BBL	.	8BL	8dL	4g	4dd	4ddd	4r	8gL]	4dd
8GG	.	8G	8BJ	.	.	.	.	8d	.
8E	.	8E	4e	16gLL	8ccL	8cccL	4GG	8G	8ccL
.	.	.	.	16f#J	.	.	.	.	.
8CJ	.	8CJ	.	8gJ	8bJ	8bbJ	.	8gJ	8bJ
4D;	.	4D;	4A;	4f#;	4a;	4aa;	4D;	4d;	4a;
4BB	.	4BB	[4B	4f#	4dd	4ddd	4r	4r	4dd
=8	=8	=8	=8	=8	=8	=8	=8	=8	=8
8EL	.	8EL	8BL]	8gL	4cc	4ccc	1r	2r	4cc
8F#J	6 5	8F#J	8AJ	8d	.	.	.	.	.
2G	#4| 2	2G	8BL	8d	4b	4bb	.	.	4b
.	.	.	8eJ	8gJ	.	.	.	.	.
.	.	.	16c#XLL	16eLL	4a	4aa	.	4r	4a
.	.	.	16BJ	16d#XJ	.	.	.	.	.
.	.	.	8c#J	8eJ	.	.	.	.	.
8F#L	#6\	8F#L	8d#XL	8f#L	16aLL	16aaLL	.	8r	16aLL
.	.	.	.	.	16gJ	16ggJ	.	.	16gJ
8BJ	.	8BJ	8f#J	8d#J	8aJ	8aaJ	.	8B	8aJ
=9	=9	=9	=9	=9	=9	=9	=9	=9	=9
4E	.	8EL	4e	8BL	8gL	8ggL	2r	8B	8gL
.	.	8e	.	8c#X	8aJ	8aaJ	.	8r	8aJ
8DL	.	8d	8fnL	8dn	8bL	8bbL	.	4r	8bL
8CJ	.	8cJ	8eJ	8GJ	8ccJ	8cccJ	.	.	8ccJ
4BB;	.	4B;	4d;	4g;	4dd;	4ddd;	4r;	4r;	4dd;
8BL	.	8BL	8dL	8f#L	4dd	4ddd	8r	[4b	4dd
8GJ	.	8GJ	8BJ	8gJ	.	.	8D	.	.
=10	=10	=10	=10	=10	=10	=10	=10	=10	=10
!!pagebreak:original
8EL	.	8EL	8GL	8gL	4cc	4ccc	8GGL	8b]	4cc
8F#	.	8F#	8AJ	8d	.	.	8D	4a	.
8G	.	8G	4B	8d	4b	4bb	8GGJ	.	4b
8EJ	.	8EJ	.	8eJ	.	.	8r	[8g	.
8CL	.	8CL	8EL	4e	8aL	8aaL	4r	16gLL]	8aL
.	.	.	.	.	.	.	.	16f#	.
8AA	.	8AAJ	8AJ	.	16bL	16bbL	.	16g	16bL
.	.	.	.	.	16ccJJ	16cccJJ	.	16aJJ	16ccJJ
8D	.	4D	4F#	4d	4a	4aa	8DL	16dLL	4a
.	.	.	.	.	.	.	.	16BJ	.
8DDJ	.	.	.	.	.	.	16DL	8dJ	.
.	.	.	.	.	.	.	16DJJ	.	.
=11	=11	=11	=11	=11	=11	=11	=11	=11	=11
2.GG	.	2.GG;	2.B;	2.d;	2.g;	2.gg;	2.GG;	2.B;	2.g;
=||	=||	=||	=||	=||	=||	=||	=||	=||	=||
*-	*-	*-	*-	*-	*-	*-	*-	*-	*-
!!!system-decoration: s1,s2,s3,s4,s5,s6,s7,s8,s9
